icons/src/svg/document_check.svg

<svg width="32" height="32" viewBox="0 0 32 32" fill="none" xmlns="http://www.w3.org/2000/svg">
<path fill-rule="evenodd" clip-rule="evenodd" d="M6.00049 4C6.00049 2.89543 6.89592 2 8.00049 2H15.5863C16.1167 2 16.6254 2.21071 17.0005 2.58579L25.4147 11C25.7898 11.3751 26.0005 11.8838 26.0005 12.4142V28C26.0005 29.1046 25.1051 30 24.0005 30H17.0005C16.4482 30 16.0005 29.5523 16.0005 29C16.0005 28.4477 16.4482 28 17.0005 28H24.0005V13H17.0005C15.8959 13 15.0005 12.1046 15.0005 11V4H8.00049V17C8.00049 17.5523 7.55277 18 7.00049 18C6.4482 18 6.00049 17.5523 6.00049 17V4ZM17.0005 5.41421V11H22.5863L17.0005 5.41421Z" fill="#0D0F13"/>
<path fill-rule="evenodd" clip-rule="evenodd" d="M16.4341 17.8085C16.8246 18.1991 16.8246 18.8322 16.4341 19.2228L7.94884 27.708C7.76129 27.8956 7.50692 28.0009 7.24168 28.0009C6.97645 28.0009 6.72209 27.8955 6.53456 27.708L2.29282 23.4654C1.90234 23.0748 1.9024 22.4417 2.29296 22.0512C2.68353 21.6607 3.31669 21.6608 3.70718 22.0513L7.2418 25.5866L15.0199 17.8085C15.4104 17.418 16.0436 17.418 16.4341 17.8085Z" fill="#0D0F13"/>
</svg>

<svg fill="none" xmlns="http://www.w3.org/2000/svg" viewBox="0 0 32 32">
  <path fill-rule="evenodd" clip-rule="evenodd" d="M6 4a2 2 0 0 1 2-2h7.586A2 2 0 0 1 17 2.586L25.415 11A2 2 0 0 1 26 12.414V28a2 2 0 0 1-2 2h-7a1 1 0 1 1 0-2h7V13h-7a2 2 0 0 1-2-2V4H8v13a1 1 0 1 1-2 0V4Zm11 1.414V11h5.586l-5.585-5.586Z" fill="currentColor"/>
  <path fill-rule="evenodd" clip-rule="evenodd" d="M16.434 17.808a1 1 0 0 1 0 1.414L7.95 27.707a1 1 0 0 1-1.414 0l-4.242-4.243a1 1 0 0 1 1.414-1.414l3.535 3.536 7.778-7.778a1 1 0 0 1 1.414 0Z" fill="currentColor"/>
</svg>
